libs/islamic-website/markets-page/src/assets/images/coin-logos/btc.svg

<svg fill="none" height="40" viewBox="0 0 40 40" width="40" xmlns="http://www.w3.org/2000/svg"><rect fill="#f7931a" height="38" rx="19" width="38" x="1" y="1"/><rect height="38" rx="19" stroke="#181e25" stroke-width="2" width="38" x="1" y="1"/><path clip-rule="evenodd" d="m27.9424 17.4355c.3583-2.3954-1.4654-3.683-3.9592-4.542l.809-3.24479-1.9752-.49217-.7875 3.15936c-.5193-.1295-1.0526-.2515-1.5826-.3725l.7933-3.18023-1.974-.49217-.8094 3.2437c-.4297-.0978-.8518-.1945-1.2612-.2964l.0022-.0102-2.7238-.6802-.5254 2.1097s1.4654.3359 1.4345.3566c.7999.1996.9445.7291.9205 1.1487l-.9215 3.6966c.055.014.1265.0342.2053.0659l-.0574-.0143c-.0487-.0122-.0994-.0249-.1514-.0373l-1.2916 5.1783c-.0978.2431-.3459.6077-.9051.4693.0198.0286-1.4356-.3583-1.4356-.3583l-.9807 2.261 2.5704.6407c.2814.0706.5595.1431.8348.2149h.0003l.0002.0001c.1923.0501.3832.0999.573.1484l-.8174 3.282 1.9729.4922.8095-3.2472c.539.1463 1.062.2813 1.5741.4085l-.8067 3.2319 1.9752.4922.8173-3.2759c3.3682.6374 5.9007.3804 6.9667-2.666.859-2.4528-.0427-3.8676-1.8147-4.7901 1.2906-.2977 2.2627-1.1465 2.5219-2.9l-.0006-.0005zm-4.5129 6.3282c-.56 2.2504-4.0824 1.32-5.694.8944l-.0001-.0001c-.1449-.0382-.2744-.0724-.3849-.0999l1.0846-4.3481c.1347.0336.2993.0706.4857.1124 1.667.3741 5.0825 1.1406 4.5088 3.4413zm-4.1743-5.4593c1.3436.3586 4.2747 1.1408 4.7852-.9044h.0002c.5212-2.0919-2.3273-2.7225-3.7185-3.0305-.1565-.0347-.2946-.0653-.4074-.0934l-.9833 3.9435c.0928.0231.2018.0522.3238.0848z" fill="#fff" fill-rule="evenodd"/></svg>

<svg width="40" height="40" viewBox="0 0 40 40" fill="none" xmlns="http://www.w3.org/2000/svg">
<rect x="1" y="1" width="38" height="38" rx="19" fill="#F7931A"/>
<rect x="1" y="1" width="38" height="38" rx="19" stroke="#181E25" stroke-width="2"/>
<path fill-rule="evenodd" clip-rule="evenodd" d="M27.9424 17.4355C28.3007 15.0401 26.477 13.7525 23.9832 12.8935L24.7922 9.64871L22.817 9.15654L22.0295 12.3159C21.5102 12.1864 20.9769 12.0644 20.4469 11.9434L21.2402 8.76317L19.2662 8.271L18.4568 11.5147C18.0271 11.4169 17.605 11.3202 17.1956 11.2183L17.1978 11.2081L14.474 10.5279L13.9486 12.6376C13.9486 12.6376 15.414 12.9735 15.3831 12.9942C16.183 13.1938 16.3276 13.7233 16.3036 14.1429L15.3821 17.8395C15.4371 17.8535 15.5086 17.8737 15.5874 17.9054L15.53 17.8911C15.4813 17.8789 15.4306 17.8662 15.3786 17.8538L14.087 23.0321C13.9892 23.2752 13.7411 23.6398 13.1819 23.5014C13.2017 23.53 11.7463 23.1431 11.7463 23.1431L10.7656 25.4041L13.336 26.0448C13.6174 26.1154 13.8955 26.1879 14.1708 26.2597L14.1711 26.2597L14.1713 26.2598C14.3636 26.3099 14.5545 26.3597 14.7443 26.4082L13.9269 29.6902L15.8998 30.1824L16.7093 26.9352C17.2483 27.0815 17.7713 27.2165 18.2834 27.3437L17.4767 30.5756L19.4519 31.0678L20.2692 27.7919C23.6374 28.4293 26.1699 28.1723 27.2359 25.1259C28.0949 22.6731 27.1932 21.2583 25.4212 20.3358C26.7118 20.0381 27.6839 19.1893 27.9431 17.4358L27.9425 17.4353L27.9424 17.4355ZM23.4295 23.7637C22.8695 26.0141 19.3471 25.0837 17.7355 24.6581L17.7354 24.658C17.5905 24.6198 17.461 24.5856 17.3505 24.5581L18.4351 20.21C18.5698 20.2436 18.7344 20.2806 18.9208 20.3224C20.5878 20.6965 24.0033 21.463 23.4296 23.7637H23.4295ZM19.2552 18.3044C20.5988 18.663 23.5299 19.4452 24.0404 17.4H24.0406C24.5618 15.3081 21.7133 14.6775 20.3221 14.3695C20.1656 14.3348 20.0275 14.3042 19.9147 14.2761L18.9314 18.2196C19.0242 18.2427 19.1332 18.2718 19.2552 18.3044Z" fill="white"/>
</svg>
